ZomZom/Assets/JAM/LUT/GradeLut_1.Frame.cube
TITLE "Generated by Resolve"
LUT_3D_SIZE 9
0 0 0
0.45034 0.0359808 0.0295872
0.990082 0.140429 0.0872969
1 0.238972 0.0500038
1 0.321813 0
1 0.386557 0
1 0.442283 0
1 0.494652 0
1 0.547387 0
0 0.652399 0.047013
0.61883 0.632441 0
1 0.689021 0
1 0.753048 0
1 0.812512 0
1 0.863371 0
1 0.91313 0
1 0.965591 0
1 1 0
0 1 0
0.766903 1 0
1 1 0
1 1 0
1 1 0
1 1 0
1 1 0
1 1 0
1 1 0
0 1 0
0.827008 1 0
1 1 0
1 1 0
1 1 0
1 1 0
1 1 0
1 1 0
1 1 0
0 1 0
0.855482 1 0
1 1 0
1 1 0
1 1 0
1 1 0
1 1 0
1 1 0
1 1 0
0 1 0
0.840299 1 0
1 1 0
1 1 0
1 1 0
1 1 0
1 1 0
1 1 0
1 1 0
0 1 0
0.707683 1 0
1 1 0
1 1 0
1 1 0
1 1 0
1 1 0
1 1 0
1 1 0
0 1 0
0 1 0
1 1 0
1 1 0
1 1 0
1 1 0
1 1 0
1 1 0
1 1 0
0 1 0
0 1 0
1 1 0
1 1 0
1 1 0
1 1 0
1 1 0
1 1 0
1 1 0
0 0 0.540276
0.465644 0.0252842 0.757565
1 0.13875 1
1 0.232578 1
1 0.306722 1
1 0.365515 1
1 0.414572 1
1 0.458656 1
1 0.498711 1
0 0.65095 0.973022
0.58822 0.621241 0.895445
1 0.669459 0.923156
1 0.723949 0.963851
1 0.772274 1
1 0.810071 1
1 0.843427 1
1 0.873716 1
1 0.90132 0.99884
0 1 1
0.6972 1 0.979324
1 1 0.938109
1 1 0.932616
1 1 0.931533
1 1 0.915526
1 1 0.886107
1 1 0.839551
1 1 0.773846
0 1 1
0.713771 1 1
1 1 0.961639
1 1 0.925185
1 1 0.894316
1 1 0.852659
1 1 0.799664
1 1 0.732448
1 1 0.64686
0 1 1
0.678752 1 1
1 1 0.938018
1 1 0.882856
1 1 0.837873
1 1 0.784222
1 1 0.718074
1 1 0.634791
1 1 0.528649
0 1 1
0.558511 1 0.969863
1 1 0.846891
1 1 0.779293
1 1 0.722332
1 1 0.653452
1 1 0.567437
1 1 0.454658
1 1 0.30631
0 1 1
0.10837 1 0.828305
1 1 0.671672
1 1 0.583047
1 1 0.503944
1 1 0.402869
1 1 0.259815
1 1 0.0571756
1 1 0
0 1 1
0 1 0.558267
1 1 0.265385
1 1 0.101991
1 1 0
1 1 0
1 1 0
1 1 0
1 1 0
0 1 0.784939
0 1 0
1 1 0
1 1 0
1 1 0
1 1 0
1 1 0
1 1 0
1 1 0
0 0 1
0.505119 0.0446021 1
1 0.161563 1
1 0.246815 1
1 0.311635 1
1 0.361379 1
1 0.404334 1
1 0.443229 1
1 0.478691 1
0 0.674296 1
0.579721 0.631693 1
1 0.669444 1
1 0.715404 1
1 0.756542 1
1 0.789105 1
1 0.818662 1
1 0.845518 1
1 0.86978 1
0 1 1
0.65333 1 1
1 1 1
1 1 1
1 1 1
1 1 1
1 1 1
1 1 1
1 1 1
0 1 1
0.651453 1 1
1 1 1
1 1 1
1 1 1
1 1 1
1 1 1
1 1 1
1 1 1
0 1 1
0.600839 1 1
1 1 1
1 1 1
1 1 1
1 1 1
1 1 1
1 1 1
1 1 1
0 1 1
0.451102 1 1
1 1 1
1 1 1
1 1 1
1 1 1
1 1 1
1 1 1
1 1 1
0 1 1
0 1 1
1 1 1
1 1 1
1 1 1
1 1 1
1 1 1
1 1 1
1 1 1
0 1 1
0 1 1
1 1 1
1 1 1
1 1 1
1 1 1
1 1 1
1 1 1
1 1 1
0 1 1
0 1 1
0.996521 1 1
1 1 1
1 1 1
1 1 1
1 1 1
1 1 1
1 1 1
0 0.00921645 1
0.558618 0.0919966 1
1 0.191745 1
1 0.265415 1
1 0.321599 1
1 0.363989 1
1 0.401907 1
1 0.435859 1
1 0.467216 1
0 0.702953 1
0.57586 0.647944 1
1 0.676585 1
1 0.715068 1
1 0.749386 1
1 0.778027 1
1 0.804074 1
1 0.828061 1
1 0.849836 1
0 1 1
0.616709 1 1
1 1 1
1 1 1
1 1 1
1 1 1
1 1 1
1 1 1
1 1 1
0 1 1
0.599207 1 1
1 1 1
1 1 1
1 1 1
1 1 1
1 1 1
1 1 1
1 1 1
0 1 1
0.533135 1 1
1 1 1
1 1 1
1 1 1
1 1 1
1 1 1
1 1 1
1 1 1
0 1 1
0.356588 1 1
1 1 1
1 1 1
1 1 1
1 1 1
1 1 1
1 1 1
1 1 1
0 1 1
0 1 1
1 1 1
1 1 1
1 1 1
1 1 1
1 1 1
1 1 1
1 1 1
0 1 1
0 1 1
1 1 1
1 1 1
1 1 1
1 1 1
1 1 1
1 1 1
1 1 1
0 1 1
0 1 1
0.913893 1 1
1 1 1
1 1 1
1 1 1
1 1 1
1 1 1
1 1 1
0 0.0869612 1
0.61297 0.146059 1
1 0.223468 1
1 0.28368 1
1 0.330114 1
1 0.367407 1
1 0.401053 1
1 0.430915 1
1 0.45919 1
0 0.730297 1
0.568978 0.665583 1
1 0.684657 1
1 0.715862 1
1 0.744595 1
1 0.769696 1
1 0.792981 1
1 0.813321 1
1 0.833127 1
0 1 1
0.577432 1 1
1 1 1
1 1 1
1 1 1
1 1 1
1 1 1
1 1 1
1 1 1
0 1 1
0.545129 1 1
1 1 1
1 1 1
1 1 1
1 1 1
1 1 1
1 1 1
1 1 1
0 1 1
0.463401 1 1
1 1 1
1 1 1
1 1 1
1 1 1
1 1 1
1 1 1
1 1 1
0 1 1
0.245609 1 1
1 1 1
1 1 1
1 1 1
1 1 1
1 1 1
1 1 1
1 1 1
0 1 1
0 1 1
1 1 1
1 1 1
1 1 1
1 1 1
1 1 1
1 1 1
1 1 1
0 1 1
0 1 1
0.982742 1 1
1 1 1
1 1 1
1 1 1
1 1 1
1 1 1
1 1 1
0 1 1
0 1 1
0.836423 1 1
1 1 1
1 1 1
1 1 1
1 1 1
1 1 1
1 1 1
0 0.164767 1
0.650263 0.194263 1
1 0.252384 1
1 0.29987 1
1 0.337057 1
1 0.369421 1
1 0.398688 1
1 0.425208 1
1 0.450523 1
0 0.754253 1
0.55285 0.680354 1
1 0.690913 1
1 0.714015 1
1 0.738125 1
1 0.760357 1
1 0.780545 1
1 0.798718 1
1 0.815839 1
0 1 1
0.52845 1 1
1 1 1
1 1 1
1 1 1
1 1 1
1 1 1
1 1 1
1 1 1
0 1 1
0.481315 1 1
1 1 1
1 1 1
1 1 1
1 1 1
1 1 1
1 1 1
1 1 1
0 1 1
0.38085 1 1
1 1 1
1 1 1
1 1 1
1 1 1
1 1 1
1 1 1
1 1 1
0 1 1
0.0739452 1 1
1 1 1
1 1 1
1 1 1
1 1 1
1 1 1
1 1 1
1 1 1
0 1 1
0 1 1
0.999268 1 1
1 1 1
1 1 1
1 1 1
1 1 1
1 1 1
1 1 1
0 1 1
0 1 1
0.910277 1 1
1 1 1
1 1 1
1 1 1
1 1 1
1 1 1
1 1 1
0 1 1
0 1 1
0.750561 1 1
1 1 1
1 1 1
1 1 1
1 1 1
1 1 1
1 1 1
0 0.231174 1
0.669017 0.234745 1
1 0.276005 1
1 0.311788 1
1 0.342397 1
1 0.370123 1
1 0.3953 1
1 0.418616 1
1 0.440696 1
0 0.773342 1
0.524163 0.690654 1
1 0.693629 1
1 0.710292 1
1 0.731044 1
1 0.749874 1
1 0.767086 1
1 0.782757 1
1 0.797711 1
0 1 1
0.471336 1 1
1 1 1
1 1 1
1 1 1
1 1 1
1 1 1
1 1 1
1 1 1
0 1 1
0.404654 1 1
1 1 1
1 1 1
1 1 1
1 1 1
1 1 1
1 1 1
1 1 1
0 1 1
0.279774 1 1
1 1 1
1 1 1
1 1 1
1 1 1
1 1 1
1 1 1
1 1 1
0 1 1
0 1 1
0.982803 1 1
1 1 1
1 1 1
1 1 1
1 1 1
1 1 1
1 1 1
0 1 1
0 1 1
0.927916 1 1
1 1 1
1 1 1
1 1 1
1 1 1
1 1 1
1 1 1
0 1 1
0 1 1
0.828489 1 1
1 1 1
1 1 1
1 1 1
1 1 1
1 1 1
1 1 1
0 1 1
0 1 1
0.645472 1 1
1 1 1
1 1 1
1 1 1
1 1 1
1 1 1
1 1 1
0 0.285313 1
0.670787 0.26775 1
1 0.293462 1
1 0.319036 1
1 0.34551 1
1 0.369284 1
1 0.390738 1
1 0.41088 1
1 0.430182 1
0 0.788479 1
0.480964 0.696101 1
1 0.692348 1
1 0.704997 1
1 0.722469 1
1 0.738354 1
1 0.75256 1
1 0.766049 1
1 0.77879 1
0 1 1
0.401007 1 1
0.971832 1 1
1 1 1
1 1 1
1 1 1
1 1 1
1 1 1
1 1 1
0 1 1
0.314137 1 1
0.961563 1 1
1 1 1
1 1 1
1 1 1
1 1 1
1 1 1
1 1 1
0 1 1
0.149065 1 1
0.94667 1 1
1 1 1
1 1 1
1 1 1
1 1 1
1 1 1
1 1 1
0 1 1
0 1 1
0.912306 1 1
1 1 1
1 1 1
1 1 1
1 1 1
1 1 1
1 1 1
0 1 1
0 1 1
0.848493 1 1
1 1 1
1 1 1
1 1 1
1 1 1
1 1 1
1 1 1
0 1 1
0 1 1
0.735012 1 1
1 1 1
1 1 1
1 1 1
1 1 1
1 1 1
1 1 1
0 1 1
0 1 1
0.52488 1 1
1 1 1
1 1 1
1 1 1
1 1 1
1 1 1
1 1 1
0 0.325917 1
0.652567 0.291112 1
1 0.304189 1
1 0.324727 1
1 0.346532 1
1 0.36669 1
1 0.384802 1
1 0.402167 1
1 0.418296 1
0 0.799847 1
0.421836 0.697398 1
0.966934 0.688289 1
1 0.698131 1
1 0.712596 1
1 0.725689 1
1 0.737438 1
1 0.748272 1
1 0.758862 1
0 1 1
0.319142 1 1
0.918669 1 1
1 1 1
1 1 1
1 1 1
1 1 1
1 1 1
1 1 1
0 1 1
0.203693 1 1
0.89752 1 1
1 1 1
1 1 1
1 1 1
1 1 1
1 1 1
1 1 1
0 1 1
0 1 1
0.876448 1 1
1 1 1
1 1 1
1 1 1
1 1 1
1 1 1
1 1 1
0 1 1
0 1 1
0.834653 1 1
1 1 1
1 1 1
1 1 1
1 1 1
1 1 1
1 1 1
0 1 1
0 1 1
0.758984 1 1
1 1 1
1 1 1
1 1 1
1 1 1
1 1 1
1 1 1
0 1 1
0 1 1
0.631083 1 1
1 1 1
1 1 1
1 1 1
1 1 1
1 1 1
1 1 1
0 1 1
0 1 1
0.385565 1 1
1 1 1
1 1 1
1 1 1
1 1 1
1 1 1
1 1 1
