ZomZom/Assets/JAM/LUT/GradeLut_1.Frame.cube
TITLE "Generated by Resolve"
LUT_3D_SIZE 33
0 0 0
0.0643931 0.000289921 0
0.197086 0.0047303 0
0.32752 0.0175326 0.00972
0.45034 0.0359808 0.0295872
0.576883 0.0601205 0.0536202
0.708415 0.0878767 0.0720836
0.845609 0.114275 0.0830549
0.990082 0.140429 0.0872969
1 0.167865 0.0859388
1 0.193225 0.0775006
1 0.216754 0.0652018
1 0.238972 0.0500038
1 0.261067 0.0337224
1 0.282979 0.0160372
1 0.303548 0
1 0.321813 0
1 0.338567 0
1 0.355016 0
1 0.370626 0
1 0.386557 0
1 0.400778 0
1 0.414511 0
1 0.428641 0
1 0.442283 0
1 0.455589 0
1 0.468635 0
1 0.481605 0
1 0.494652 0
1 0.507622 0
1 0.52015 0
1 0.534005 0
1 0.547387 0
0 0.108675 0.00535592
0.0726787 0.116442 0.00712596
0.213321 0.128893 0.0121462
0.34049 0.145541 0.022858
0.466667 0.167163 0.0374914
0.596078 0.192462 0.0524453
0.729259 0.21944 0.0612039
0.867124 0.247654 0.0614023
1 0.273365 0.051133
1 0.298466 0.0335088
1 0.323262 0.0110628
1 0.346548 0
1 0.367636 0
1 0.38764 0
1 0.406271 0
1 0.424704 0
1 0.442512 0
1 0.459068 0
1 0.475029 0
1 0.491096 0
1 0.50605 0
1 0.520668 0
1 0.534371 0
1 0.547707 0
1 0.561318 0
1 0.575418 0
1 0.589029 0
1 0.602182 0
1 0.615412 0
1 0.62916 0
1 0.64387 0
1 0.658152 0
1 0.672206 0
0 0.274907 0.0390173
0.0513771 0.27602 0.0364691
0.226688 0.283421 0.0357824
0.372091 0.299214 0.0383001
0.506905 0.31902 0.0393225
0.637858 0.341146 0.035874
0.771115 0.366796 0.0271305
0.90251 0.391836 0.0125429
1 0.415839 0
1 0.437263 0
1 0.457542 0
1 0.477791 0
1 0.498802 0
1 0.517937 0
1 0.535851 0
1 0.552789 0
1 0.569635 0
1 0.586206 0
1 0.602487 0
1 0.616938 0
1 0.630991 0
1 0.644923 0
1 0.658473 0
1 0.672526 0
1 0.685649 0
1 0.698802 0
1 0.712474 0
1 0.726146 0
1 0.740124 0
1 0.754299 0
1 0.76849 0
1 0.7832 0
1 0.798291 0
0 0.462516 0.0702678
0.0325475 0.453422 0.0561685
0.255695 0.45156 0.0411994
0.418708 0.461372 0.0284123
0.563073 0.47744 0.0155947
0.699107 0.497078 0.00297551
0.826337 0.515328 0
0.949401 0.534112 0
1 0.553552 0
1 0.572931 0
1 0.592554 0
1 0.610208 0
1 0.627619 0
1 0.645014 0
1 0.662013 0
1 0.677989 0
1 0.694072 0
1 0.708843 0
1 0.723384 0
1 0.737285 0
1 0.750454 0
1 0.763302 0
1 0.776684 0
1 0.789624 0
1 0.80267 0
1 0.815686 0
1 0.828702 0
1 0.842206 0
1 0.856291 0
1 0.870146 0
1 0.884459 0
1 0.898985 0
1 0.913771 0
0 0.652399 0.047013
0.0278477 0.633692 0.032105
0.295506 0.622873 0.0177615
0.471077 0.624201 0
0.61883 0.632441 0
0.753063 0.644862 0
0.87895 0.659205 0
0.998688 0.673991 0
1 0.689021 0
1 0.705699 0
1 0.72192 0
1 0.737743 0
1 0.753048 0
1 0.768017 0
1 0.78294 0
1 0.798489 0
1 0.812512 0
1 0.825757 0
1 0.838483 0
1 0.850965 0
1 0.863371 0
1 0.876326 0
1 0.888411 0
1 0.900526 0
1 0.91313 0
1 0.925826 0
1 0.939422 0
1 0.952239 0
1 0.965591 0
1 0.979202 0
1 0.993271 0
1 1 0
1 1 0
0 0.82591 0.00115969
0.0217441 0.798489 0
0.32958 0.782208 0
0.515648 0.777722 0
0.66685 0.779706 0
0.800732 0.786221 0
0.925307 0.796002 0
1 0.807584 0
1 0.820951 0
1 0.833448 0
1 0.846357 0
1 0.859861 0
1 0.873457 0
1 0.88751 0
1 0.900465 0
1 0.913008 0
1 0.925338 0
1 0.937392 0
1 0.948791 0
1 0.960891 0
1 0.972183 0
1 0.98381 0
1 0.995499 0
1 1 0
1 1 0
1 1 0
1 1 0
1 1 0
1 1 0
1 1 0
1 1 0
1 1 0
1 1 0
0 0.986358 0
0.0129244 0.953048 0
0.355459 0.929778 0
0.55079 0.920012 0
0.706676 0.918364 0
0.842527 0.921309 0
0.967498 0.927596 0
1 0.936034 0
1 0.945586 0
1 0.955962 0
1 0.966567 0
1 0.977493 0
1 0.989487 0
1 1 0
1 1 0
1 1 0
1 1 0
1 1 0
1 1 0
1 1 0
1 1 0
1 1 0
1 1 0
1 1 0
1 1 0
1 1 0
1 1 0
1 1 0
1 1 0
1 1 0
1 1 0
1 1 0
1 1 0
0 1 0
0 1 0
0.373938 1 0
0.579065 1 0
0.739254 1 0
0.878096 1 0
1 1 0
1 1 0
1 1 0
1 1 0
1 1 0
1 1 0
1 1 0
1 1 0
1 1 0
1 1 0
1 1 0
1 1 0
1 1 0
1 1 0
1 1 0
1 1 0
1 1 0
1 1 0
1 1 0
1 1 0
1 1 0
1 1 0
1 1 0
1 1 0
1 1 0
1 1 0
1 1 0
0 1 0
0 1 0
0.383459 1 0
0.601205 1 0
0.766903 1 0
0.906859 1 0
1 1 0
1 1 0
1 1 0
1 1 0
1 1 0
1 1 0
1 1 0
1 1 0
1 1 0
1 1 0
1 1 0
1 1 0
1 1 0
1 1 0
1 1 0
1 1 0
1 1 0
1 1 0
1 1 0
1 1 0
1 1 0
1 1 0
1 1 0
1 1 0
1 1 0
1 1 0
1 1 0
0 1 0
0 1 0
0.382605 1 0
0.616236 1 0
0.787427 1 0
0.930312 1 0
1 1 0
1 1 0
1 1 0
1 1 0
1 1 0
1 1 0
1 1 0
1 1 0
1 1 0
1 1 0
1 1 0
1 1 0
1 1 0
1 1 0
1 1 0
1 1 0
1 1 0
1 1 0
1 1 0
1 1 0
1 1 0
1 1 0
1 1 0
1 1 0
1 1 0
1 1 0
1 1 0
0 1 0
0 1 0
0.371206 1 0
0.623819 1 0
0.80148 1 0
0.948318 1 0
1 1 0
1 1 0
1 1 0
1 1 0
1 1 0
1 1 0
1 1 0
1 1 0
1 1 0
1 1 0
1 1 0
1 1 0
1 1 0
1 1 0
1 1 0
1 1 0
1 1 0
1 1 0
1 1 0
1 1 0
1 1 0
1 1 0
1 1 0
1 1 0
1 1 0
1 1 0
1 1 0
0 1 0
0 1 0
0.351141 1 0
0.628824 1 0
0.814298 1 0
0.965728 1 0
1 1 0
1 1 0
1 1 0
1 1 0
1 1 0
1 1 0
1 1 0
1 1 0
1 1 0
1 1 0
1 1 0
1 1 0
1 1 0
1 1 0
1 1 0
1 1 0
1 1 0
1 1 0
1 1 0
1 1 0
1 1 0
1 1 0
1 1 0
1 1 0
1 1 0
1 1 0
1 1 0
0 1 0
0 1 0
0.320439 1 0
0.631418 1 0
0.827008 1 0
0.983291 1 0
1 1 0
1 1 0
1 1 0
1 1 0
1 1 0
1 1 0
1 1 0
1 1 0
1 1 0
1 1 0
1 1 0
1 1 0
1 1 0
1 1 0
1 1 0
1 1 0
1 1 0
1 1 0
1 1 0
1 1 0
1 1 0
1 1 0
1 1 0
1 1 0
1 1 0
1 1 0
1 1 0
0 1 0
0 1 0
0.267765 1 0
0.633448 1 0
0.838331 1 0
0.999481 1 0
1 1 0
1 1 0
1 1 0
1 1 0
1 1 0
1 1 0
1 1 0
1 1 0
1 1 0
1 1 0
1 1 0
1 1 0
1 1 0
1 1 0
1 1 0
1 1 0
1 1 0
1 1 0
1 1 0
1 1 0
1 1 0
1 1 0
1 1 0
1 1 0
1 1 0
1 1 0
1 1 0
0 1 0
0 1 0
0.190692 1 0
0.630884 1 0
0.846647 1 0
1 1 0
1 1 0
1 1 0
1 1 0
1 1 0
1 1 0
1 1 0
1 1 0
1 1 0
1 1 0
1 1 0
1 1 0
1 1 0
1 1 0
1 1 0
1 1 0
1 1 0
1 1 0
1 1 0
1 1 0
1 1 0
1 1 0
1 1 0
1 1 0
1 1 0
1 1 0
1 1 0
1 1 0
0 1 0
0 1 0
0.0910048 1 0
0.622324 1 0
0.853178 1 0
1 1 0
1 1 0
1 1 0
1 1 0
1 1 0
1 1 0
1 1 0
1 1 0
1 1 0
1 1 0
1 1 0
1 1 0
1 1 0
1 1 0
1 1 0
1 1 0
1 1 0
1 1 0
1 1 0
1 1 0
1 1 0
1 1 0
1 1 0
1 1 0
1 1 0
1 1 0
1 1 0
1 1 0
0 1 0
0 1 0
0 1 0
0.606394 1 0
0.855482 1 0
1 1 0
1 1 0
1 1 0
1 1 0
1 1 0
1 1 0
1 1 0
1 1 0
1 1 0
1 1 0
1 1 0
1 1 0
1 1 0
1 1 0
1 1 0
1 1 0
1 1 0
1 1 0
1 1 0
1 1 0
1 1 0
1 1 0
1 1 0
1 1 0
1 1 0
1 1 0
1 1 0
1 1 0
0 1 0
0 1 0
0 1 0
0.580896 1 0
0.856825 1 0
1 1 0
1 1 0
1 1 0
1 1 0
1 1 0
1 1 0
1 1 0
1 1 0
1 1 0
1 1 0
1 1 0
1 1 0
1 1 0
1 1 0
1 1 0
1 1 0
1 1 0
1 1 0
1 1 0
1 1 0
1 1 0
1 1 0
1 1 0
1 1 0
1 1 0
1 1 0
1 1 0
1 1 0
0 1 0
0 1 0
0 1 0
0.545403 1 0
0.854429 1 0
1 1 0
1 1 0
1 1 0
1 1 0
1 1 0
1 1 0
1 1 0
1 1 0
1 1 0
1 1 0
1 1 0
1 1 0
1 1 0
1 1 0
1 1 0
1 1 0
1 1 0
1 1 0
1 1 0
1 1 0
1 1 0
1 1 0
1 1 0
1 1 0
1 1 0
1 1 0
1 1 0
1 1 0
0 1 0
0 1 0
0 1 0
0.477974 1 0
0.849256 1 0
1 1 0
1 1 0
1 1 0
1 1 0
1 1 0
1 1 0
1 1 0
1 1 0
1 1 0
1 1 0
1 1 0
1 1 0
1 1 0
1 1 0
1 1 0
1 1 0
1 1 0
1 1 0
1 1 0
1 1 0
1 1 0
1 1 0
1 1 0
1 1 0
1 1 0
1 1 0
1 1 0
1 1 0
0 1 0
0 1 0
0 1 0
0.349508 1 0
0.840299 1 0
1 1 0
1 1 0
1 1 0
1 1 0
1 1 0
1 1 0
1 1 0
1 1 0
1 1 0
1 1 0
1 1 0
1 1 0
1 1 0
1 1 0
1 1 0
1 1 0
1 1 0
1 1 0
1 1 0
1 1 0
1 1 0
1 1 0
1 1 0
1 1 0
1 1 0
1 1 0
1 1 0
1 1 0
0 1 0
0 1 0
0 1 0
0.194034 1 0
0.827573 1 0
1 1 0
1 1 0
1 1 0
1 1 0
1 1 0
1 1 0
1 1 0
1 1 0
1 1 0
1 1 0
1 1 0
1 1 0
1 1 0
1 1 0
1 1 0
1 1 0
1 1 0
1 1 0
1 1 0
1 1 0
1 1 0
1 1 0
1 1 0
1 1 0
1 1 0
1 1 0
1 1 0
1 1 0
0 1 0
0 1 0
0 1 0
0.0306401 1 0
0.807187 1 0
1 1 0
1 1 0
1 1 0
1 1 0
1 1 0
1 1 0
1 1 0
1 1 0
1 1 0
1 1 0
1 1 0
1 1 0
1 1 0
1 1 0
1 1 0
1 1 0
1 1 0
1 1 0
1 1 0
1 1 0
1 1 0
1 1 0
1 1 0
1 1 0
1 1 0
1 1 0
1 1 0
1 1 0
0 1 0
0 1 0
0 1 0
0 1 0
0.769589 1 0
1 1 0
1 1 0
1 1 0
1 1 0
1 1 0
1 1 0
1 1 0
1 1 0
1 1 0
1 1 0
1 1 0
1 1 0
1 1 0
1 1 0
1 1 0
1 1 0
1 1 0
1 1 0
1 1 0
1 1 0
1 1 0
1 1 0
1 1 0
1 1 0
1 1 0
1 1 0
1 1 0
1 1 0
0 1 0
0 1 0
0 1 0
0 1 0
0.707683 1 0
1 1 0
1 1 0
1 1 0
1 1 0
1 1 0
1 1 0
1 1 0
1 1 0
1 1 0
1 1 0
1 1 0
1 1 0
1 1 0
1 1 0
1 1 0
1 1 0
1 1 0
1 1 0
1 1 0
1 1 0
1 1 0
1 1 0
1 1 0
1 1 0
1 1 0
1 1 0
1 1 0
1 1 0
0 1 0
0 1 0
0 1 0
0 1 0
0.548287 1 0
1 1 0
1 1 0
1 1 0
1 1 0
1 1 0
1 1 0
1 1 0
1 1 0
1 1 0
1 1 0
1 1 0
1 1 0
1 1 0
1 1 0
1 1 0
1 1 0
1 1 0
1 1 0
1 1 0
1 1 0
1 1 0
1 1 0
1 1 0
1 1 0
1 1 0
1 1 0
1 1 0
1 1 0
0 1 0
0 1 0
0 1 0
0 1 0
0.364477 1 0
1 1 0
1 1 0
1 1 0
1 1 0
1 1 0
1 1 0
1 1 0
1 1 0
1 1 0
1 1 0
1 1 0
1 1 0
1 1 0
1 1 0
1 1 0
1 1 0
1 1 0
1 1 0
1 1 0
1 1 0
1 1 0
1 1 0
1 1 0
1 1 0
1 1 0
1 1 0
1 1 0
1 1 0
0 1 0
0 1 0
0 1 0
0 1 0
0.155306 1 0
1 1 0
1 1 0
1 1 0
1 1 0
