ZomZom/Assets/JAM/LUT/GradeLut_1.Frame.cube
TITLE "Generated by Resolve"
LUT_3D_SIZE 5
0 0 0
0.990082 0.140429 0.0872969
1 0.321813 0
1 0.442283 0
1 0.547387 0
0 1 0
1 1 0
1 1 0
1 1 0
1 1 0
0 1 0
1 1 0
1 1 0
1 1 0
1 1 0
0 1 0
1 1 0
1 1 0
1 1 0
1 1 0
0 1 0
1 1 0
1 1 0
1 1 0
1 1 0
0 0 1
1 0.161563 1
1 0.311635 1
1 0.404334 1
1 0.478691 1
0 1 1
1 1 1
1 1 1
1 1 1
1 1 1
0 1 1
1 1 1
1 1 1
1 1 1
1 1 1
0 1 1
1 1 1
1 1 1
1 1 1
1 1 1
0 1 1
0.996521 1 1
1 1 1
1 1 1
1 1 1
0 0.0869612 1
1 0.223468 1
1 0.330114 1
1 0.401053 1
1 0.45919 1
0 1 1
1 1 1
1 1 1
1 1 1
1 1 1
0 1 1
1 1 1
1 1 1
1 1 1
1 1 1
0 1 1
1 1 1
1 1 1
1 1 1
1 1 1
0 1 1
0.836423 1 1
1 1 1
1 1 1
1 1 1
0 0.231174 1
1 0.276005 1
1 0.342397 1
1 0.3953 1
1 0.440696 1
0 1 1
1 1 1
1 1 1
1 1 1
1 1 1
0 1 1
1 1 1
1 1 1
1 1 1
1 1 1
0 1 1
0.927916 1 1
1 1 1
1 1 1
1 1 1
0 1 1
0.645472 1 1
1 1 1
1 1 1
1 1 1
0 0.325917 1
1 0.304189 1
1 0.346532 1
1 0.384802 1
1 0.418296 1
0 1 1
0.918669 1 1
1 1 1
1 1 1
1 1 1
0 1 1
0.876448 1 1
1 1 1
1 1 1
1 1 1
0 1 1
0.758984 1 1
1 1 1
1 1 1
1 1 1
0 1 1
0.385565 1 1
1 1 1
1 1 1
1 1 1
